images/6604232.svg

<?xml version="1.0" encoding="UTF-8"?>
<svg xmlns="http://www.w3.org/2000/svg" xmlns:xlink="http://www.w3.org/1999/xlink" width="300pt" height="300pt" viewBox="0 0 300 300" version="1.1">
<defs>
<g>
<symbol overflow="visible" id="glyph0-0">
<path style="stroke:none;" d="M 0.453125 1.59375 L 0.453125 -6.34375 L 4.953125 -6.34375 L 4.953125 1.59375 Z M 0.953125 1.09375 L 4.453125 1.09375 L 4.453125 -5.84375 L 0.953125 -5.84375 Z M 0.953125 1.09375 "/>
</symbol>
<symbol overflow="visible" id="glyph0-1">
<path style="stroke:none;" d="M 3.546875 -5.953125 C 2.898438 -5.953125 2.382812 -5.710938 2 -5.234375 C 1.625 -4.753906 1.4375 -4.101562 1.4375 -3.28125 C 1.4375 -2.445312 1.625 -1.789062 2 -1.3125 C 2.382812 -0.832031 2.898438 -0.59375 3.546875 -0.59375 C 4.191406 -0.59375 4.703125 -0.832031 5.078125 -1.3125 C 5.453125 -1.789062 5.640625 -2.445312 5.640625 -3.28125 C 5.640625 -4.101562 5.453125 -4.753906 5.078125 -5.234375 C 4.703125 -5.710938 4.191406 -5.953125 3.546875 -5.953125 Z M 3.546875 -6.6875 C 4.460938 -6.6875 5.195312 -6.375 5.75 -5.75 C 6.300781 -5.132812 6.578125 -4.3125 6.578125 -3.28125 C 6.578125 -2.238281 6.300781 -1.410156 5.75 -0.796875 C 5.195312 -0.179688 4.460938 0.125 3.546875 0.125 C 2.617188 0.125 1.878906 -0.179688 1.328125 -0.796875 C 0.773438 -1.410156 0.5 -2.238281 0.5 -3.28125 C 0.5 -4.3125 0.773438 -5.132812 1.328125 -5.75 C 1.878906 -6.375 2.617188 -6.6875 3.546875 -6.6875 Z M 3.546875 -6.6875 "/>
</symbol>
<symbol overflow="visible" id="glyph0-2">
<path style="stroke:none;" d="M 0.890625 -6.5625 L 1.765625 -6.5625 L 1.765625 -3.875 L 5 -3.875 L 5 -6.5625 L 5.890625 -6.5625 L 5.890625 0 L 5 0 L 5 -3.125 L 1.765625 -3.125 L 1.765625 0 L 0.890625 0 Z M 0.890625 -6.5625 "/>
</symbol>
</g>
</defs>
<g id="surface38509">
<rect x="0" y="0" width="300" height="300" style="fill:rgb(100%,100%,100%);fill-opacity:1;stroke:none;"/>
<path style="fill:none;stroke-width:1;stroke-linecap:butt;stroke-linejoin:miter;stroke:rgb(0%,0%,0%);stroke-opacity:1;stroke-miterlimit:10;" d="M 191.621094 155.890625 L 191.621094 155.890625 M 189.292969 157.785156 L 190.082031 158.464844 M 186.964844 159.675781 L 188.542969 161.039062 M 184.636719 161.566406 L 187 163.613281 M 182.308594 163.457031 L 185.460938 166.191406 M 179.980469 165.351562 L 183.921875 168.765625 M 177.652344 167.242188 L 182.378906 171.339844 M 175.324219 169.132812 L 180.839844 173.914062 M 172.996094 171.027344 L 179.300781 176.488281 M 172.058594 171.789062 L 178.679688 177.523438 "/>
<path style="fill:none;stroke-width:1.2;stroke-linecap:butt;stroke-linejoin:miter;stroke:rgb(0%,0%,0%);stroke-opacity:1;stroke-miterlimit:10;" d="M 191.621094 155.890625 L 199.746094 179.347656 "/>
<path style="fill:none;stroke-width:1.2;stroke-linecap:butt;stroke-linejoin:miter;stroke:rgb(0%,0%,0%);stroke-opacity:1;stroke-miterlimit:10;" d="M 207.875 137.128906 L 191.621094 155.890625 "/>
<path style="fill:none;stroke-width:1.2;stroke-linecap:butt;stroke-linejoin:miter;stroke:rgb(0%,0%,0%);stroke-opacity:1;stroke-miterlimit:10;" d="M 167.246094 151.199219 L 191.621094 155.890625 "/>
<path style="fill:none;stroke-width:1.2;stroke-linecap:butt;stroke-linejoin:miter;stroke:rgb(0%,0%,0%);stroke-opacity:1;stroke-miterlimit:10;" d="M 199.746094 179.347656 L 224.121094 184.042969 "/>
<path style="fill:none;stroke-width:1.2;stroke-linecap:butt;stroke-linejoin:miter;stroke:rgb(0%,0%,0%);stroke-opacity:1;stroke-miterlimit:10;" d="M 224.121094 184.042969 L 240.375 165.277344 "/>
<path style="fill:none;stroke-width:1.2;stroke-linecap:butt;stroke-linejoin:miter;stroke:rgb(0%,0%,0%);stroke-opacity:1;stroke-miterlimit:10;" d="M 240.375 165.277344 L 232.25 141.820312 "/>
<path style=" stroke:none;fill-rule:nonzero;fill:rgb(0%,0%,0%);fill-opacity:1;" d="M 240.375 165.277344 L 263.921875 174.273438 L 265.578125 165.667969 Z M 240.375 165.277344 "/>
<path style=" stroke:none;fill-rule:nonzero;fill:rgb(0%,0%,0%);fill-opacity:1;" d="M 207.875 137.128906 L 231.421875 146.121094 L 233.078125 137.519531 Z M 207.875 137.128906 "/>
<path style="fill:none;stroke-width:1.2;stroke-linecap:butt;stroke-linejoin:miter;stroke:rgb(0%,0%,0%);stroke-opacity:1;stroke-miterlimit:10;" d="M 207.875 137.128906 L 199.75 113.671875 "/>
<path style="fill:none;stroke-width:1.2;stroke-linecap:butt;stroke-linejoin:miter;stroke:rgb(0%,0%,0%);stroke-opacity:1;stroke-miterlimit:10;" d="M 199.75 113.671875 L 175.375 108.976562 "/>
<path style=" stroke:none;fill-rule:nonzero;fill:rgb(0%,0%,0%);fill-opacity:1;" d="M 159.121094 127.742188 L 178.683594 111.847656 L 172.0625 106.109375 Z M 159.121094 127.742188 "/>
<path style="fill:none;stroke-width:1.2;stroke-linecap:butt;stroke-linejoin:miter;stroke:rgb(0%,0%,0%);stroke-opacity:1;stroke-miterlimit:10;" d="M 159.121094 127.742188 L 167.246094 151.199219 "/>
<path style="fill:none;stroke-width:1.2;stroke-linecap:butt;stroke-linejoin:miter;stroke:rgb(0%,0%,0%);stroke-opacity:1;stroke-miterlimit:10;" d="M 134.746094 123.050781 L 159.121094 127.742188 "/>
<path style="fill:none;stroke-width:1;stroke-linecap:butt;stroke-linejoin:miter;stroke:rgb(0%,0%,0%);stroke-opacity:1;stroke-miterlimit:10;" d="M 167.246094 151.199219 L 167.246094 151.199219 M 164.917969 153.089844 L 165.707031 153.773438 M 162.589844 154.980469 L 164.164062 156.347656 M 160.261719 156.875 L 162.625 158.921875 M 157.933594 158.765625 L 161.085938 161.496094 M 155.605469 160.65625 L 159.542969 164.070312 M 153.277344 162.550781 L 158.003906 166.644531 M 150.945312 164.441406 L 156.464844 169.21875 M 148.617188 166.332031 L 154.925781 171.792969 M 147.683594 167.09375 L 154.304688 172.832031 "/>
<path style="fill:none;stroke-width:1.2;stroke-linecap:butt;stroke-linejoin:miter;stroke:rgb(0%,0%,0%);stroke-opacity:1;stroke-miterlimit:10;" d="M 150.992188 169.960938 L 126.617188 165.269531 "/>
<path style="fill:none;stroke-width:1.2;stroke-linecap:butt;stroke-linejoin:miter;stroke:rgb(0%,0%,0%);stroke-opacity:1;stroke-miterlimit:10;" d="M 126.617188 165.269531 L 118.492188 141.8125 "/>
<path style="fill:none;stroke-width:1.2;stroke-linecap:butt;stroke-linejoin:miter;stroke:rgb(0%,0%,0%);stroke-opacity:1;stroke-miterlimit:10;" d="M 118.492188 141.8125 L 134.746094 123.050781 "/>
<path style="fill:none;stroke-width:1;stroke-linecap:butt;stroke-linejoin:miter;stroke:rgb(0%,0%,0%);stroke-opacity:1;stroke-miterlimit:10;" d="M 118.492188 141.8125 L 118.492188 141.8125 M 115.980469 143.449219 L 116.691406 144.210938 M 113.464844 145.089844 L 114.890625 146.613281 M 110.953125 146.726562 L 113.089844 149.011719 M 108.441406 148.363281 L 111.289062 151.410156 M 105.925781 150.003906 L 109.488281 153.808594 M 103.414062 151.640625 L 107.6875 156.210938 M 100.898438 153.28125 L 105.886719 158.609375 M 98.386719 154.917969 L 104.085938 161.007812 M 97.375 155.578125 L 103.363281 161.972656 "/>
<path style="fill:none;stroke-width:1.2;stroke-linecap:butt;stroke-linejoin:miter;stroke:rgb(0%,0%,0%);stroke-opacity:1;stroke-miterlimit:10;" d="M 95.625 132.15625 L 118.492188 141.8125 "/>
<path style="fill:none;stroke-width:1.2;stroke-linecap:butt;stroke-linejoin:miter;stroke:rgb(0%,0%,0%);stroke-opacity:1;stroke-miterlimit:10;" d="M 134.746094 123.050781 L 121.921875 101.792969 "/>
<path style=" stroke:none;fill-rule:nonzero;fill:rgb(0%,0%,0%);fill-opacity:1;" d="M 134.746094 123.050781 L 152.539062 105.195312 L 145.355469 100.183594 Z M 134.746094 123.050781 "/>
<path style="fill:none;stroke-width:1.2;stroke-linecap:butt;stroke-linejoin:miter;stroke:rgb(0%,0%,0%);stroke-opacity:1;stroke-miterlimit:10;" d="M 121.921875 101.792969 L 97.746094 107.421875 "/>
<path style="fill:none;stroke-width:1.2;stroke-linecap:butt;stroke-linejoin:miter;stroke:rgb(0%,0%,0%);stroke-opacity:1;stroke-miterlimit:10;" d="M 97.746094 107.421875 L 95.625 132.15625 "/>
<path style=" stroke:none;fill-rule:nonzero;fill:rgb(0%,0%,0%);fill-opacity:1;" d="M 95.625 132.15625 L 72.105469 141.226562 L 76.632812 148.730469 Z M 95.625 132.15625 "/>
<path style="fill:none;stroke-width:1.2;stroke-linecap:butt;stroke-linejoin:miter;stroke:rgb(0%,0%,0%);stroke-opacity:1;stroke-miterlimit:10;" d="M 74.371094 144.976562 L 72.25 169.710938 "/>
<path style="fill:none;stroke-width:1.2;stroke-linecap:butt;stroke-linejoin:miter;stroke:rgb(0%,0%,0%);stroke-opacity:1;stroke-miterlimit:10;" d="M 68.339844 146.953125 L 66.644531 166.738281 "/>
<path style="fill:none;stroke-width:1.2;stroke-linecap:butt;stroke-linejoin:miter;stroke:rgb(0%,0%,0%);stroke-opacity:1;stroke-miterlimit:10;" d="M 51.503906 135.320312 L 74.371094 144.976562 "/>
<path style="fill:none;stroke-width:1.2;stroke-linecap:butt;stroke-linejoin:miter;stroke:rgb(0%,0%,0%);stroke-opacity:1;stroke-miterlimit:10;" d="M 72.25 169.710938 L 48.074219 175.339844 "/>
<path style="fill:none;stroke-width:1.2;stroke-linecap:butt;stroke-linejoin:miter;stroke:rgb(0%,0%,0%);stroke-opacity:1;stroke-miterlimit:10;" d="M 45.382812 174.203125 L 40.554688 185.636719 "/>
<path style="fill:none;stroke-width:1.2;stroke-linecap:butt;stroke-linejoin:miter;stroke:rgb(100%,0%,0%);stroke-opacity:1;stroke-miterlimit:10;" d="M 40.554688 185.636719 L 35.722656 197.070312 "/>
<path style="fill:none;stroke-width:1.2;stroke-linecap:butt;stroke-linejoin:miter;stroke:rgb(0%,0%,0%);stroke-opacity:1;stroke-miterlimit:10;" d="M 50.761719 176.476562 L 45.933594 187.910156 "/>
<path style="fill:none;stroke-width:1.2;stroke-linecap:butt;stroke-linejoin:miter;stroke:rgb(100%,0%,0%);stroke-opacity:1;stroke-miterlimit:10;" d="M 45.933594 187.910156 L 41.105469 199.34375 "/>
<path style="fill:none;stroke-width:1.2;stroke-linecap:butt;stroke-linejoin:miter;stroke:rgb(0%,0%,0%);stroke-opacity:1;stroke-miterlimit:10;" d="M 48.074219 175.339844 L 41.660156 164.710938 "/>
<path style="fill:none;stroke-width:1.2;stroke-linecap:butt;stroke-linejoin:miter;stroke:rgb(100%,0%,0%);stroke-opacity:1;stroke-miterlimit:10;" d="M 41.660156 164.710938 L 35.25 154.082031 "/>
<path style=" stroke:none;fill-rule:nonzero;fill:rgb(100%,100%,100%);fill-opacity:1;" d="M 30.414062 192.707031 L 38.414062 192.707031 L 38.414062 203.707031 L 30.414062 203.707031 Z M 30.414062 192.707031 "/>
<g style="fill:rgb(100%,0%,0%);fill-opacity:1;">
  <use xlink:href="#glyph0-1" x="30.414062" y="201.370117"/>
</g>
<path style="fill:none;stroke-width:1.2;stroke-linecap:butt;stroke-linejoin:miter;stroke:rgb(100%,0%,0%);stroke-opacity:1;stroke-miterlimit:10;" d="M 35.25 154.082031 L 43.375 144.703125 "/>
<path style="fill:none;stroke-width:1.2;stroke-linecap:butt;stroke-linejoin:miter;stroke:rgb(0%,0%,0%);stroke-opacity:1;stroke-miterlimit:10;" d="M 43.375 144.703125 L 51.503906 135.320312 "/>
<path style=" stroke:none;fill-rule:nonzero;fill:rgb(100%,100%,100%);fill-opacity:1;" d="M 31.25 148.582031 L 39.25 148.582031 L 39.25 159.582031 L 31.25 159.582031 Z M 31.25 148.582031 "/>
<g style="fill:rgb(100%,0%,0%);fill-opacity:1;">
  <use xlink:href="#glyph0-1" x="31.25" y="157.245117"/>
</g>
<path style=" stroke:none;fill-rule:nonzero;fill:rgb(100%,100%,100%);fill-opacity:1;" d="M 141.945312 97.1875 L 156.945312 97.1875 L 156.945312 108.1875 L 141.945312 108.1875 Z M 141.945312 97.1875 "/>
<g style="fill:rgb(100%,0%,0%);fill-opacity:1;">
  <use xlink:href="#glyph0-1" x="141.945312" y="105.850586"/>
  <use xlink:href="#glyph0-2" x="149.287109" y="105.850586"/>
</g>
<path style=" stroke:none;fill-rule:nonzero;fill:rgb(100%,100%,100%);fill-opacity:1;" d="M 257.75 164.46875 L 272.75 164.46875 L 272.75 175.46875 L 257.75 175.46875 Z M 257.75 164.46875 "/>
<g style="fill:rgb(100%,0%,0%);fill-opacity:1;">
  <use xlink:href="#glyph0-1" x="257.75" y="173.131836"/>
  <use xlink:href="#glyph0-2" x="265.091797" y="173.131836"/>
</g>
</g>
</svg>

<svg xmlns="http://www.w3.org/2000/svg" xmlns:xlink="http://www.w3.org/1999/xlink" width="300pt" height="300pt" viewBox="0 0 300 300"><defs><symbol overflow="visible"><path d="M.453 1.594v-7.938h4.5v7.938zm.5-.5h3.5v-6.938h-3.5zm0 0"/></symbol><symbol overflow="visible" id="a"><path d="M3.547-5.953c-.65 0-1.164.242-1.547.72-.375.48-.563 1.13-.563 1.952 0 .835.188 1.49.563 1.967.383.48.898.72 1.547.72.644 0 1.156-.24 1.53-.72.376-.476.564-1.132.564-1.968 0-.822-.187-1.474-.562-1.954-.375-.477-.887-.72-1.53-.72zm0-.734c.914 0 1.648.312 2.203.937.55.617.828 1.438.828 2.47 0 1.042-.277 1.87-.828 2.483-.555.617-1.29.922-2.203.922-.93 0-1.668-.305-2.22-.922C.774-1.41.5-2.237.5-3.28c0-1.033.273-1.853.828-2.47.55-.625 1.29-.938 2.22-.938zm0 0"/></symbol><symbol overflow="visible" id="b"><path d="M.89-6.563h.876v2.688H5v-2.688h.89V0H5v-3.125H1.766V0H.89zm0 0"/></symbol></defs><g><path fill="#fff" d="M0 0h300v300H0z"/><path d="M191.62 155.89m-2.327 1.895l.79.68m-3.118 1.21l1.578 1.364m-3.906.526l2.363 2.047m-4.69-.156l3.15 2.734m-5.48-.838l3.942 3.414m-6.27-1.524l4.727 4.098m-7.056-2.207l5.516 4.78m-7.844-2.886l6.305 5.46m-7.24-4.698l6.62 5.733" stroke="#000" stroke-miterlimit="10" fill="none"/><path d="M191.62 155.89l8.126 23.458M207.875 137.13l-16.254 18.76M167.246 151.2l24.375 4.69M199.746 179.348l24.375 4.695M224.12 184.043l16.255-18.766M240.375 165.277l-8.125-23.457" stroke-width="1.2" stroke="#000" stroke-miterlimit="10" fill="none"/><path d="M240.375 165.277l23.547 8.996 1.656-8.605zm0 0M207.875 137.13l23.547 8.99 1.656-8.6zm0 0"/><path d="M207.875 137.13l-8.125-23.458M199.75 113.672l-24.375-4.695" stroke-width="1.2" stroke="#000" stroke-miterlimit="10" fill="none"/><path d="M159.12 127.742l19.564-15.894-6.62-5.74zm0 0"/><path d="M159.12 127.742l8.126 23.457M134.746 123.05l24.375 4.692" stroke-width="1.2" stroke="#000" stroke-miterlimit="10" fill="none"/><path d="M167.246 151.2m-2.328 1.89l.79.683m-3.118 1.207l1.574 1.368m-3.902.527l2.363 2.047m-4.69-.156l3.15 2.73m-5.48-.84l3.938 3.414m-6.266-1.52l4.727 4.095m-7.06-2.204l5.52 4.78m-7.847-2.888l6.31 5.46m-7.243-4.698l6.62 5.738" stroke="#000" stroke-miterlimit="10" fill="none"/><path d="M150.992 169.96l-24.375-4.69M126.617 165.27l-8.125-23.458M118.492 141.813l16.254-18.762" stroke-width="1.2" stroke="#000" stroke-miterlimit="10" fill="none"/><path d="M118.492 141.813m-2.512 1.636l.71.76m-3.225.88l1.426 1.523m-3.937.114l2.137 2.285m-4.65-.65l2.85 3.048m-5.364-1.406l3.562 3.805m-6.074-2.17l4.273 4.57m-6.79-2.93l4.99 5.33m-7.5-3.692l5.7 6.09m-6.712-5.43l5.988 6.395" stroke="#000" stroke-miterlimit="10" fill="none"/><path d="M95.625 132.156l22.867 9.656M134.746 123.05l-12.824-21.257" stroke-width="1.2" stroke="#000" stroke-miterlimit="10" fill="none"/><path d="M134.746 123.05l17.793-17.855-7.185-5.01zm0 0"/><path d="M121.922 101.793l-24.176 5.63M97.746 107.422l-2.12 24.734" stroke-width="1.2" stroke="#000" stroke-miterlimit="10" fill="none"/><path d="M95.625 132.156l-23.52 9.07 4.528 7.504zm0 0"/><path d="M74.37 144.977l-2.12 24.734M68.34 146.953l-1.695 19.785M51.504 135.32l22.867 9.657M72.25 169.71l-24.176 5.63M45.383 174.203l-4.828 11.434" stroke-width="1.2" stroke="#000" stroke-miterlimit="10" fill="none"/><path d="M40.555 185.637l-4.832 11.433" stroke-width="1.2" stroke="#f00" stroke-miterlimit="10" fill="none"/><path d="M50.762 176.477l-4.828 11.433" stroke-width="1.2" stroke="#000" stroke-miterlimit="10" fill="none"/><path d="M45.934 187.91l-4.83 11.434" stroke-width="1.2" stroke="#f00" stroke-miterlimit="10" fill="none"/><path d="M48.074 175.34l-6.414-10.63" stroke-width="1.2" stroke="#000" stroke-miterlimit="10" fill="none"/><path d="M41.66 164.71l-6.41-10.628" stroke-width="1.2" stroke="#f00" stroke-miterlimit="10" fill="none"/><path d="M30.414 192.707h8v11h-8zm0 0" fill="#fff"/><use xlink:href="#a" x="30.414" y="201.37" fill="#f00"/><path d="M35.25 154.082l8.125-9.38" stroke-width="1.2" stroke="#f00" stroke-miterlimit="10" fill="none"/><path d="M43.375 144.703l8.13-9.383" stroke-width="1.2" stroke="#000" stroke-miterlimit="10" fill="none"/><path d="M31.25 148.582h8v11h-8zm0 0" fill="#fff"/><use xlink:href="#a" x="31.25" y="157.245" fill="#f00"/><path d="M141.945 97.188h15v11h-15zm0 0" fill="#fff"/><g fill="#f00"><use xlink:href="#a" x="141.945" y="105.851"/><use xlink:href="#b" x="149.287" y="105.851"/></g><path d="M257.75 164.47h15v11h-15zm0 0" fill="#fff"/><g fill="#f00"><use xlink:href="#a" x="257.75" y="173.132"/><use xlink:href="#b" x="265.092" y="173.132"/></g></g></svg>
